view/frontend/web/svg/flags/ec.svg

<svg width="24" height="24" viewbox="0 0 20 15" viewBox="0 0 20 15" fill="none" xmlns="http://www.w3.org/2000/svg">
<g clip-path="url(#clip0_270_60948)">
<rect width="20" height="15" fill="white"/>
<path fill-rule="evenodd" clip-rule="evenodd" d="M0 0V15H20V0H0Z" fill="#2E42A5"/>
<mask id="mask0_270_60948" style="mask-type:luminance" maskUnits="userSpaceOnUse" x="0" y="0" width="20" height="15">
<path fill-rule="evenodd" clip-rule="evenodd" d="M0 0V15H20V0H0Z" fill="white"/>
</mask>
<g mask="url(#mask0_270_60948)">
<path fill-rule="evenodd" clip-rule="evenodd" d="M0 0V7.5H20V0H0Z" fill="#FECA00"/>
<path fill-rule="evenodd" clip-rule="evenodd" d="M0 11.25V15H20V11.25H0Z" fill="#E31D1C"/>
<path fill-rule="evenodd" clip-rule="evenodd" d="M5.75796 3.61996C5.6827 3.45021 8.57709 2.59122 8.79396 2.59122C9.01084 2.59122 9.28516 3.10559 9.28516 3.10559L11.0454 3.24797C11.0454 3.24797 10.8374 2.59122 11.0454 2.59122C11.2533 2.59122 14.4401 3.69819 14.4401 3.69819C14.4401 3.69819 10.4564 4.17841 10.4564 4.28653C10.4564 4.39466 10.7173 4.98826 10.7173 4.98826L9.98058 5.22967C9.98058 5.22967 10.0238 4.51431 9.90372 4.51431C9.7836 4.51431 9.42699 5.36992 9.42699 5.36992L9.07729 4.28653C9.07729 4.28653 5.83322 3.78971 5.75796 3.61996Z" fill="#7B2900"/>
<path d="M5.77039 6.26123L6.55836 6.44965C5.73392 9.89736 6.49595 11.5508 8.84238 11.7044L8.78944 12.5129C5.84895 12.3203 4.84328 10.1383 5.77039 6.26123Z" fill="#FECA00"/>
<path d="M6.25026 5.79648L7.05071 5.92174C6.48611 9.52968 6.93826 11.1611 8.20555 11.1164L8.23407 11.9261C6.20936 11.9974 5.6153 9.85404 6.25026 5.79648Z" fill="#07138E"/>
<path d="M7.06044 5.46561L7.86089 5.59087C7.29629 9.19881 7.74844 10.8302 9.01573 10.7856L9.04425 11.5953C7.01954 11.6666 6.42548 9.52316 7.06044 5.46561Z" fill="#E10001"/>
<path d="M8.56382 12.0459L9.3702 11.9675C9.43659 12.6503 9.38631 13.239 9.21334 13.7333L8.44862 13.4657C8.57918 13.0926 8.61959 12.6194 8.56382 12.0459Z" fill="#07138E"/>
<path d="M13.4374 6.35544C13.4374 6.35544 14.7287 12.1634 10.7496 12.0629" stroke="#FECA00" stroke-width="0.810185"/>
<path d="M13.3515 5.79648L12.5511 5.92174C13.1157 9.52968 12.6635 11.1611 11.3962 11.1164L11.3677 11.9261C13.3924 11.9974 13.9865 9.85404 13.3515 5.79648Z" fill="#07138E"/>
<path d="M12.5413 5.46561L11.7409 5.59087C12.3055 9.19881 11.8533 10.8302 10.5861 10.7856L10.5575 11.5953C12.5822 11.6666 13.1763 9.52316 12.5413 5.46561Z" fill="#E10001"/>
<path d="M10.8804 12.0504L10.0749 11.963C10.0073 12.5865 10.0587 13.1266 10.2363 13.5814L10.991 13.2867C10.8651 12.9642 10.8259 12.5527 10.8804 12.0504Z" fill="#07138E"/>
<rect x="8.66663" y="10.9375" width="2.43056" height="1.15809" fill="#908F89"/>
<path d="M9.88191 11.25C10.5672 11.25 11.1591 10.8637 11.5677 10.2964C11.9766 9.72853 12.2199 8.95984 12.2199 8.125C12.2199 7.29016 11.9766 6.52147 11.5677 5.95364C11.1591 5.38627 10.5672 5 9.88191 5C9.19662 5 8.6047 5.38627 8.1961 5.95364C7.78718 6.52147 7.54395 7.29016 7.54395 8.125C7.54395 8.95984 7.78718 9.72853 8.1961 10.2964C8.6047 10.8637 9.19662 11.25 9.88191 11.25Z" stroke="#FEE901" stroke-width="0.625"/>
<mask id="mask1_270_60948" style="mask-type:luminance" maskUnits="userSpaceOnUse" x="7" y="4" width="6" height="8">
<path d="M9.88191 11.25C10.5672 11.25 11.1591 10.8637 11.5677 10.2964C11.9766 9.72853 12.2199 8.95984 12.2199 8.125C12.2199 7.29016 11.9766 6.52147 11.5677 5.95364C11.1591 5.38627 10.5672 5 9.88191 5C9.19662 5 8.6047 5.38627 8.1961 5.95364C7.78718 6.52147 7.54395 7.29016 7.54395 8.125C7.54395 8.95984 7.78718 9.72853 8.1961 10.2964C8.6047 10.8637 9.19662 11.25 9.88191 11.25Z" fill="white" stroke="white" stroke-width="0.625"/>
</mask>
<g mask="url(#mask1_270_60948)">
<path fill-rule="evenodd" clip-rule="evenodd" d="M11.3488 9.62812C11.3488 9.62812 10.3641 9.0923 10.0815 8.9013C9.79891 8.7103 9.96205 8.2842 9.47531 8.39808C8.98856 8.51196 8.59752 8.7103 8.59752 9.25404C8.59752 9.79778 8.21537 10.1206 8.08514 9.74909C7.9549 9.3776 7.34248 7.64041 8.08514 7.64041C8.82779 7.64041 10.5637 8.03 11.0747 8.03C11.5857 8.03 11.8831 8.29514 11.8831 8.77459C11.8831 9.41948 11.3488 9.62812 11.3488 9.62812Z" fill="#8DDD61"/>
<path fill-rule="evenodd" clip-rule="evenodd" d="M9.88191 6.80148C10.1056 6.80148 10.287 6.6163 10.287 6.38788C10.287 6.15945 10.1056 5.97427 9.88191 5.97427C9.65818 5.97427 9.47681 6.15945 9.47681 6.38788C9.47681 6.6163 9.65818 6.80148 9.88191 6.80148Z" fill="#FEE901"/>
<path fill-rule="evenodd" clip-rule="evenodd" d="M8.54339 6.83783C8.54339 6.83783 9.01462 6.72386 9.66573 7.16264C10.3168 7.60142 11.8955 7.85128 11.8955 7.50696C11.8955 7.16264 11.8955 8.17767 11.8955 8.17767C11.8955 8.17767 8.39265 7.95958 8.20525 8.17767C8.01786 8.39577 7.99916 6.95972 8.20525 6.83783C8.41135 6.71594 8.54339 6.83783 8.54339 6.83783Z" fill="#F7FCFF"/>
</g>
</g>
</g>
<defs>
<clipPath id="clip0_270_60948">
<rect width="20" height="15" fill="white"/>
</clipPath>
</defs>
</svg>

<svg width="24" height="24" viewbox="0 0 20 15" fill="none" xmlns="http://www.w3.org/2000/svg">
  <mask id="a" maskUnits="userSpaceOnUse" x="0" y="0" width="20" height="15">
    <path fill="#fff" d="M0 0h20v15H0z"/>
  </mask>
  <g mask="url(#a)">
    <path fill-rule="evenodd" clip-rule="evenodd" d="M0 0v15h20V0H0z" fill="#2E42A5"/>
    <mask id="b" maskUnits="userSpaceOnUse" x="0" y="0" width="20" height="15">
      <path fill-rule="evenodd" clip-rule="evenodd" d="M0 0v15h20V0H0z" fill="#fff"/>
    </mask>
    <g mask="url(#b)">
      <path fill-rule="evenodd" clip-rule="evenodd" d="M0 0v7.5h20V0H0z" fill="#FECA00"/>
      <path fill-rule="evenodd" clip-rule="evenodd" d="M0 11.25V15h20v-3.75H0z" fill="#E31D1C"/>
      <path fill-rule="evenodd" clip-rule="evenodd" d="M5.758 3.62c-.075-.17 2.82-1.029 3.036-1.029.217 0 .491.515.491.515l1.76.142s-.208-.657 0-.657 3.395 1.107 3.395 1.107-3.984.48-3.984.589c0 .108.261.701.261.701l-.736.242s.043-.716-.077-.716-.477.856-.477.856l-.35-1.083S5.833 3.79 5.758 3.62z" fill="#7B2900"/>
      <path d="M5.77 6.261l.788.189c-.824 3.447-.062 5.1 2.284 5.254l-.053.809C5.85 12.32 4.843 10.138 5.77 6.26z" fill="#FECA00"/>
      <path d="M6.25 5.796l.8.126c-.564 3.608-.112 5.24 1.156 5.194l.028.81c-2.025.071-2.619-2.072-1.984-6.13z" fill="#07138E"/>
      <path d="M7.06 5.466l.8.125c-.564 3.608-.112 5.24 1.156 5.195l.028.81c-2.024.07-2.619-2.073-1.984-6.13z" fill="#E10001"/>
      <path d="M8.564 12.046l.806-.079c.067.683.016 1.272-.157 1.766l-.764-.267c.13-.373.17-.847.115-1.42z" fill="#07138E"/>
      <path d="M13.437 6.355s1.292 5.808-2.687 5.708" stroke="#FECA00" stroke-width=".81"/>
      <path d="M13.351 5.796l-.8.126c.565 3.608.113 5.24-1.155 5.194l-.028.81c2.024.071 2.618-2.072 1.983-6.13z" fill="#07138E"/>
      <path d="M12.541 5.466l-.8.125c.565 3.608.112 5.24-1.155 5.195l-.029.81c2.025.07 2.62-2.073 1.984-6.13z" fill="#E10001"/>
      <path d="M10.88 12.05l-.805-.087c-.068.623-.016 1.164.161 1.618l.755-.294c-.126-.323-.165-.734-.11-1.237z" fill="#07138E"/>
      <path fill="#908F89" d="M8.667 10.938h2.431v1.158H8.667z"/>
      <path d="M9.882 11.25c.685 0 1.277-.386 1.686-.954.409-.567.652-1.336.652-2.171 0-.835-.243-1.604-.652-2.171-.409-.568-1-.954-1.686-.954-.685 0-1.277.386-1.686.954-.409.567-.652 1.336-.652 2.171 0 .835.243 1.604.652 2.171.409.568 1 .954 1.686.954z" stroke="#FEE901" stroke-width=".625"/>
      <mask id="c" maskUnits="userSpaceOnUse" x="7" y="4" width="6" height="8">
        <path d="M9.882 11.25c.685 0 1.277-.386 1.686-.954.409-.567.652-1.336.652-2.171 0-.835-.243-1.604-.652-2.171-.409-.568-1-.954-1.686-.954-.685 0-1.277.386-1.686.954-.409.567-.652 1.336-.652 2.171 0 .835.243 1.604.652 2.171.409.568 1 .954 1.686.954z" fill="#fff" stroke="#fff" stroke-width=".625"/>
      </mask>
      <g mask="url(#c)" fill-rule="evenodd" clip-rule="evenodd">
        <path d="M11.349 9.628s-.985-.536-1.268-.727c-.282-.19-.119-.617-.606-.503-.486.114-.877.312-.877.856s-.383.867-.513.495c-.13-.371-.743-2.109 0-2.109s2.479.39 2.99.39c.51 0 .808.265.808.745 0 .644-.534.853-.534.853z" fill="#8DDD61"/>
        <path d="M9.882 6.801a.41.41 0 00.405-.413.41.41 0 00-.405-.414.41.41 0 00-.405.414.41.41 0 00.405.413z" fill="#FEE901"/>
        <path d="M8.543 6.838s.472-.114 1.123.325c.65.438 2.23.688 2.23.344v.67s-3.503-.217-3.69 0c-.188.219-.207-1.217 0-1.34.205-.121.337 0 .337 0z" fill="#F7FCFF"/>
      </g>
    </g>
  </g>
</svg>
